assets/svg/icon_profile_save.svg

<svg width="24" height="24" viewBox="0 0 24 24" fill="none" xmlns="http://www.w3.org/2000/svg">
<path d="M8.93863 11.5906C8.71253 11.3484 8.33286 11.3353 8.09061 11.5614C7.84836 11.7875 7.83527 12.1671 8.06137 12.4094L8.93863 11.5906ZM10.8333 14.5L10.3947 14.9094C10.5082 15.031 10.667 15.1 10.8333 15.1C10.9996 15.1 11.1585 15.031 11.272 14.9094L10.8333 14.5ZM15.9386 9.90939C16.1647 9.66714 16.1516 9.28747 15.9094 9.06137C15.6671 8.83527 15.2875 8.84836 15.0614 9.09061L15.9386 9.90939ZM12 18.9C9.0212 18.9 7.38102 18.5009 6.44017 17.5601C5.49933 16.6193 5.1 14.9792 5.1 12H3.9C3.9 14.9792 4.2719 17.089 5.59167 18.4086C6.91144 19.7283 9.02125 20.1 12 20.1V18.9ZM5.1 12C5.1 9.02085 5.49933 7.38068 6.44017 6.43992C7.38102 5.49915 9.0212 5.1 12 5.1V3.9C9.02125 3.9 6.91144 4.2717 5.59167 5.59135C4.2719 6.91102 3.9 9.02085 3.9 12H5.1ZM12 5.1C14.9788 5.1 16.619 5.49915 17.5598 6.43992C18.5007 7.38068 18.9 9.02085 18.9 12H20.1C20.1 9.02085 19.7281 6.91102 18.4083 5.59135C17.0886 4.2717 14.9787 3.9 12 3.9V5.1ZM18.9 12C18.9 14.9792 18.5007 16.6193 17.5598 17.5601C16.619 18.5009 14.9788 18.9 12 18.9V20.1C14.9787 20.1 17.0886 19.7283 18.4083 18.4086C19.7281 17.089 20.1 14.9792 20.1 12H18.9ZM8.06137 12.4094L10.3947 14.9094L11.272 14.0906L8.93863 11.5906L8.06137 12.4094ZM11.272 14.9094L15.9386 9.90939L15.0614 9.09061L10.3947 14.0906L11.272 14.9094Z" fill="white"/>
</svg>

<svg xmlns="http://www.w3.org/2000/svg" width="24" height="24" fill="none"><path fill="#fff" d="M8.939 11.59a.6.6 0 0 0-.878.82zm1.894 2.91-.438.41a.6.6 0 0 0 .877 0zm5.106-4.59a.6.6 0 0 0-.878-.82zM12 18.9c-2.979 0-4.619-.4-5.56-1.34S5.1 14.98 5.1 12H3.9c0 2.98.372 5.089 1.692 6.409S9.022 20.1 12 20.1zM5.1 12c0-2.98.4-4.62 1.34-5.56S9.021 5.1 12 5.1V3.9c-2.979 0-5.089.372-6.408 1.691C4.272 6.911 3.9 9.021 3.9 12zM12 5.1c2.979 0 4.619.4 5.56 1.34S18.9 9.02 18.9 12h1.2c0-2.98-.372-5.089-1.692-6.409S14.978 3.9 12 3.9zm6.9 6.9c0 2.98-.4 4.62-1.34 5.56S14.979 18.9 12 18.9v1.2c2.979 0 5.089-.372 6.408-1.691 1.32-1.32 1.692-3.43 1.692-6.409zm-10.839.41 2.334 2.5.877-.82-2.333-2.5zm3.211 2.5 4.667-5-.878-.82-4.666 5z"/></svg>
